X:27
T:Geafta\'i Bhaile Bu\'i
R:air
Z:id:hn-air-27
M:4/4
L:1/8
Q:1/4=60
K:G
GA | B>A BD G3G | Gg gd g3 d/c/ | B>D GA B2 AG | E6 GA |
B>A BD G3G | Gg g>d g3 d/c/ | BD GA B2 A>G | G6 d2 ||
dB de g3e | ed ge d3 d/c/ | BD GA B2 AG | E6 GA |
B>A BD G3G | Gg gd g3 d/c/ | BD GA B2 AG | G6 || 

